!!!OTL: Die Spinnerin.
!!!OTL-incipit: SPINN SPINN MEIN SCHOEINS NANNERL
!!!ARE: Europa, Mitteleuropa, Deutschland, Boehmen
!!!SCT: Z1229
!!!YEM: Copyright 1995, estate of Helmut Schaffrath.
**kern	**text
*ICvox	*
*M3/4	*
*k[f#]	*
*G:	*
!LO:TX:a:t=Aus Böhmen.	!
{4dd	Spinn,
=1	=1
4gg	ſpinn,
4dd	mein
(8ddL	ſchöins
8eeJ)	.
=2	=2
8ddL	Nan-
8ccJ	.
4b}	-nerl,
{4dd	ich
=3	=3
4ee	kauf'
4ee	dia
8dd	neua
8cc	.
=4	=4
4ccqq	.
2b}	Schuh.
{8gL	Jo,
8bJ	.
=5	=5
4b	jo,
4a	mein
8a	loi-
8cc	-ba
=6	=6
4cc	Moutta,
4b}	.
{8dd	ſchöine
8gg	.
=7	=7
8ee	Schnölla
8cc	.
4b/	a
4a	da-
=8	=8
2g}	-ʒu!
{4b/	Jch
=9	=9
4a	konn
4a	jo
8bL	net
8cc#J	.
=10	=10
4dd;	ſpin-
4dd}	-na,
{4b	mia
=11	=11
4a	thoun
4a	mei-
8bL	-na
8cc#J	.
=12	=12
4dd;	Fin-
4dd}	-ga
{4ee	ſua
=13	=13
2dd;	weh!
4cc#	ſua
=14	=14
2dd;}	weh!
{8dd	Meine
8gg	.
=15	=15
8eeL	Finga-
8ccJ	.
4b	-la
4a	ſua
=16	=16
2g;}	weh!
==	==
!!!AGN: Liebes - Lied
!!!ONB: ESAC (Essen Associative Code) Database: ZUCCAL
!!!AMT: simple triple
!!!AIN: vox
!!!EED: Helmut Schaffrath
!!!EEV: 1.0
!!!GTL: V. Lieder der Minne.
!!!URL-scan: https://www.digitale-sammlungen.de/de/view/bsb11160573?page=440
!!!ENC: Anna Maria Matuszewska
!!!EEV: 2025/02/06
*-	*-
